X: 1
T: She Hasn't The Thing She Thought She Had
M: 12/8
L: 1/8
R: slide
K: Dmaj
A2 G | FGA D2 d c2 B A2 G | FGA D2 F E3- E2 G |
FGA D2 d c2 B A2 G | FAF EFE D3- D2 E |
FEF DFd c2 B A2 G | FAF D2 F E3 E2 G |
FAF D2 d c2 B A2 G | FAF EFE D3- D2 ||
e | f2 e d2 A Bcd AFA | f2 e d2 f e3- e2 e |
f2 e d2 A BdB A2 G | FAF EFE D3- D2 e |
f2 e d2 A Bcd AFA | f2 e d2 f e3- e2 e |
fef d2 A Bcd A2 G | FDF GEC D3 ||
